X:1
T:Title
%%score { ( 1 3 ) | ( 2 4 ) }
L:1/8
Q:1/4=100
M:3/4
K:D
V:1 treble nm="Grand Piano"
V:3 treble 
V:2 bass 
V:4 bass 
V:1
 F2 F2 F2 | A4 F2 | E2 z2 z2 | [A,EG]2 [A,DF]2 [DB]2 | [A,DA]4 [A,DF]2 | [A,E]4 [A,DF]2 | [A,CE]6 | %7
w: Canon~J.~H.~Lester * *|||||||
 [A,DF]2 [A,DF]2 [B,DF]2 | [CEA]4 [DFA]2 | B2 z2 [Gd]2 | [Gd]2 [FA]2 A2 | G4 F2 | F4[K:bass] z2 | %13
w: ||||||
 [F,D]6 |] %14
w: |
V:2
 [D,A,D]2 [D,A,D]2 [D,A,D]2 | [F,A,D]4 [D,A,D]2 | z2 F2 A,,2 | C,2 D,2 G,2 | F,4 D,2 | C,4 D,2 | %6
 A,,6 | D,2 D,2 B,,2 | A,,4 D,2 | z2[K:treble] c2 [G,B,]2 | [D,A,]2 [D,D]2 [F,=CD]2 | %11
 [G,B,D]4 [^G,B,D]2 | A,4 z2 | D,6 |] %14
V:3
 x6 | x6 | [A,D]4 [A,CG]2 | x6 | x6 | x6 | x6 | x6 | x6 | [DG]4 z2 | x6 | x6 | %12
 z2 C[K:bass]B, [G,CE]2 | x6 |] %14
V:4
 x6 | x6 | A,,4 z2 | x6 | x6 | x6 | x6 | x6 | x6 | G,4[K:treble] z2 | x6 | x6 | D2 z2 A,,2 | x6 |] %14

